X:1
T:Immortal Love, CM
T:David Brüning, 1916
T:Immortal Love, CM
T:Public Domain
C:David Br&#252;ning, 1916
Z:Public Domain
%%score ( 1 2 ) ( 3 4 )
L:1/8
M:3/4
K:Eb
V:1 treble 
V:2 treble 
V:3 bass 
V:4 bass 
V:1
 [EG]2 [EB]2 [EA]2 | F4 [Dc]2 | [EB]4 [EG]2 | [FA]4 [EB]2 | [Ee]4 [Fd]2 | [Ec]4 [CB]2 | C4 ^C2 | %7
 [DA]6 | [EG]2 [=Ec]2 [GB]2 | [FA]4 [F=A]2 | [FB]4 [DF]2 | [EG]4 [FB]2 | [=EB]4 [FA]2 | %13
 E2 D2- [DF]2 | E6 |] %15
V:2
 x6 | x6 | x6 | x6 | x6 | x6 | A6- | x6 | x6 | x6 | x6 | x6 | x6 | G4 x2 | E6 |] %15
V:3
 [E,B,]2 [G,B,]2 [C,C]2 | [D,B,]4 A,2 | [G,B,]4 [E,B,]2 | [D,B,]4 [E,G,]2 | [C,G,]4 [D,G,]2 | %5
 [E,G,]4 [=E,G,]2 | F,6 | [B,,B,]6 | [E,B,]2 [C,C]2 [=E,C]2 | [F,C]4 [E,C]2 | [D,B,]4 [B,,B,]2 | %11
 [E,B,]4 [F,,C]2 | [G,,C]4 [A,,C]2 | [B,,B,]4 [B,,A,]2 | [E,G,]6 |] %15
V:4
 x6 | x4 A,2 | x6 | x6 | x6 | x6 | x6 | x6 | x6 | x6 | x6 | x6 | x6 | x6 | x6 |] %15

